X:9
T:dr Obbürger. 1991  Bb  ABAC
T:Alois Gabriel (28.10.1950)
T:Dirigenten-Notiz  Edi Gasser
C:Unterwalden (CH)
%%partsbox
P:ABAC
R:Naturjodel
M:3/4
L:1/4
K:Bb 
[P:A] "gefühlvoll" D | F>B d/f/ | =e/c/ _e/f/ d/c/ | B>d B/G/ | F>D F/B,/ | 
C>D E/F/ | G/e/ d/F/ c/f/ | d>c B/d/ | f2 F/E/ | DB/F/ d/B/ | c/F/f>e | 
d>c B/d/ | e2 B/G/ | F/D/ B/F/ d/B/ | c/F/ fd/c/ | !fermata!B2 || 
L:1/4
M:3/4
[P:B]  "rhythmisch, nicht zu schnell" F| dfF/d/ | cf/F/ d/c/ | B>d B/D/ | F>D F/B/ | A/F/ E/F/ A/B/ | 
cf/F/ d/c/ | B>F B/c/ | d2 f/e/ | df/F/ e/d/ | cf/F/ d/c/ | 
B>d B/D/ | F>D F/B/ | A/F/ E/F/ A/B/ | cf/F/ d/c/ | !fermata!B2 || 
L:1/4
M:3/4
[P:C] "fröhlich" F/E/| D>F B/c/ | dBG | c/_c/=cd | e2E | Ff/c/ e/A/ | c>F e/A/ | Bd B/D/ | F2F/E/ | 
D>F B/c/ | dBG | c/_c/ =cd | e2E | Ff/c/ e/A/ | c/F/ eA | B2F/E/ | 
D>F B/c/ | dBG | c/_c/ =cd | e2E | Ff/c/ e/A/ | c>F e/A/ | BdB/D/ | 
F2F/E/ | D>F B/c/ | dBG | c/_c/ =cd | e2E | Ff/c/ e/A/ | c/F/ eA | !fermata!B2 |] 
W:
%W:Reihenfolge: A - B - A - C
W:
W:notiert Edi Gasser. Angaben Alois Gabriel
W:UJV-Naturjodelsammlung: Code-Nr: 38-05
W:http://www.naturjodler.ch/code 38.htm  (with AUDIO)
%Juni 7, 2018

